!!!COM: Robert Franz
!!!CNT: Deutscher
!!!TXO: Deutsche 
!!!OTL: Widmung
!!!OPS: Op. 14
!!!ONM: No. 1
!!!ONB: Original key: Ab major
!!!LYR: Wolfgang Muller
!!!ENC: Brian Bice
!!!YOR: Vocal Album, G. Schirmer, Inc., 1907
!!!ODT: 1860/
!!NB: Vocal melody and text only encoded.
**kern	**silbe
*clefG2	*
*k[b-]	*
*M2/4	*
=1	=1
{4a	{O
8g	dan-
8f	-ke
=2	=2
8.b-	nicht
16a	fu2r
8g	die-
8f	-se
=3	=3
4a	Lie-
8g}	-der,}
8r	.
=4	=4
{4cc	{mir
8b-	ziemt
8a	es,
=5	=5
8g	dank-
8g	-bar
8.b-	Dir
16a	zu
=6	=6
4g}	sein;}
4r	.
=7	=7
{4cc	{Du
8.g	gabst
16g	sie
=8	=8
4.a	mir,
8r	.
=9	=9
4g	ich
8.d	ge-
16d	-be
=10	=10
4f	wie-
8e}	-der,}
{8c	{was
=11	=11
8f	jetzt
8g	und
8a	einst
8bn	und
=12	=12
4c	e-
4b-	-wig
=13	=13
4a}	Dein.}
4r	.
=15	=15
{4a	{Dein
8g	sind
8f	sie
=16	=16
8.b-	al-
16a	-le
8g	ja
8f	ge-
=17	=17
4a	-we-
8g}	-sen,}
{8g	{aus
=18	=18
(4cc	Dei-
8b-)	|
8a	-ner
=19	=19
8g	lie-
8g	-ben
8.b-	Au-
16a	-gen
=20	=20
4g}	Licht}
4r	.
=21	=21
{4cc	{hab'
8.g	ich
16g	sie
=22	=22
4a	true-
8f	-lich
8r	.
=23	=23
(4f	ab-
8e)	|
8f	-ge-
=24	=24
4g	-le-
8g}	-sen,}
8r	.
=25	=25
{4f	{kennst
8g	Du
8a	die
=26	=26
(4e	eig-
8f)	|
8g	-nen
=27	=27
(4f	Lie-
8a)	|
8cc	-der
=28	=28
4.cc}	nicht?}
8r	.
=29	=29
{4cc	{kennst
8.f	Du
16f	die
=30	=30
(4dd	eig-
8cc)	|
8b-	-nen
=31	=31
(4a	Lie-
8b-)	|
8e	-der
=32	=32
4.f}	nicht?}
8r	.
*-	*-
